src/icons/svg/twitter.svg

<svg width="20" height="20" viewBox="0 0 20 20" fill="none" xmlns="http://www.w3.org/2000/svg">
<path fill-rule="evenodd" clip-rule="evenodd" d="M6.64167 17.25C13.4717 17.25 17.2075 11.6707 17.2075 6.83286C17.2075 6.67404 17.2075 6.51641 17.1967 6.35937C17.9234 5.84186 18.5506 5.19931 19.0492 4.4641C18.3723 4.76033 17.6528 4.9546 16.917 5.04025C17.6917 4.58252 18.2718 3.86341 18.5497 3.01488C17.8202 3.44137 17.0229 3.74238 16.1912 3.90388C14.7849 2.42987 12.4328 2.35846 10.9368 3.74502C9.97297 4.63906 9.56301 5.97205 9.86256 7.24351C6.87697 7.0954 4.095 5.70529 2.20898 3.41845C1.22343 5.09142 1.72752 7.23082 3.35923 8.30509C2.76827 8.28814 2.18997 8.13127 1.67322 7.84754V7.894C1.67412 9.63658 2.92031 11.137 4.65248 11.4823C4.10586 11.6295 3.53209 11.6509 2.97642 11.5447C3.4624 13.0366 4.85701 14.0584 6.44528 14.0878C5.13032 15.1068 3.50584 15.6601 1.8334 15.6583C1.53837 15.6574 1.24334 15.6404 0.949219 15.6056C2.6479 16.6799 4.62352 17.25 6.64167 17.2473" fill="#19191C"/>
</svg>

<svg xmlns="http://www.w3.org/2000/svg" width="20" height="20" fill="none"><path fill="#19191C" fill-rule="evenodd" d="M6.642 17.25c6.83 0 10.565-5.58 10.565-10.417 0-.159 0-.317-.01-.474a7.5 7.5 0 0 0 1.852-1.895 7.5 7.5 0 0 1-2.132.576 3.7 3.7 0 0 0 1.633-2.025 7.5 7.5 0 0 1-2.359.889 3.755 3.755 0 0 0-5.254-.159 3.63 3.63 0 0 0-1.074 3.499 10.6 10.6 0 0 1-7.654-3.826 3.63 3.63 0 0 0 1.15 4.887 3.7 3.7 0 0 1-1.686-.457v.046c.001 1.743 1.247 3.243 2.98 3.588a3.75 3.75 0 0 1-1.677.063 3.71 3.71 0 0 0 3.47 2.543 7.52 7.52 0 0 1-5.497 1.518 10.63 10.63 0 0 0 5.693 1.641" clip-rule="evenodd"/></svg>
